svg/white_balance_auto.svg

<svg xmlns="http://www.w3.org/2000/svg" viewBox="0 0 24 24"><path d="m10.3 16-.7-2H6.4l-.7 2H3.8L7 7h2l3.2 9M22 7l-1.2 6.29L19.3 7h-1.6l-1.49 6.29L15 7h-.76C12.77 5.17 10.5 4 8 4a8 8 0 0 0-8 8 8 8 0 0 0 8 8c3.13 0 5.84-1.81 7.15-4.43l.1.43H17l1.5-6.1L20 16h1.75l2.05-9M6.85 12.65h2.3L8 9z"/></svg>

<?xml version="1.0" encoding="UTF-8"?><!DOCTYPE svg PUBLIC "-//W3C//DTD SVG 1.1//EN" "http://www.w3.org/Graphics/SVG/1.1/DTD/svg11.dtd"><svg xmlns="http://www.w3.org/2000/svg" xmlns:xlink="http://www.w3.org/1999/xlink" version="1.1" id="mdi-white-balance-auto" width="24" height="24" viewBox="0 0 24 24"><path d="M10.3,16L9.6,14H6.4L5.7,16H3.8L7,7H9L12.2,16M22,7L20.8,13.29L19.3,7H17.7L16.21,13.29L15,7H14.24C12.77,5.17 10.5,4 8,4A8,8 0 0,0 0,12A8,8 0 0,0 8,20C11.13,20 13.84,18.19 15.15,15.57L15.25,16H17L18.5,9.9L20,16H21.75L23.8,7M6.85,12.65H9.15L8,9L6.85,12.65Z" /></svg>
